X:1
T:Title
%%score ( 1 2 ) ( 3 4 )
L:1/8
Q:1/4=100
M:6/8
K:Ab
V:1 treble nm="Grand Piano, Soprano"
V:2 treble 
V:3 bass nm="Choir Pad, Sweet Hosannas"
V:4 bass 
V:1
 [CE] [CE]2 [CA] [CA]2 | [DB] [EA]2 [EG] [EG]2 | [EA] [EG]2 [DF] [DF]2 | [DG] [DF]2 [CE] [CE]2 | %4
w: By~C.~A.~Shaw * * *||||
 [CE] [CE]2 [CA] [Ec]2 | [_Ge] [Fe]2 [Fd] [Fd]2 | [Fd] [Ec]2 [EA]AG | [EA] [Ec]2 [DB] [CA]2- | %8
w: ||||
 [CA] [Ec]2- [Ec][Ec][DB] | [CA] [CE]2- [CE] [CA]2- | [CA] [EB]2 [EB]Bc | [Ed] [Ec]2 [Ec] [Ec]2- | %12
w: ||||
 [Ec] [Ee]2- [Ee]ec | [EA] [DF]2- [DF] [Fd]2- | [Fd] [Ec]2 [EA]AG | [EA] [Ec]2 [DB] [CA]2- | %16
w: ||||
 [CA]6 |] %17
w: |
V:2
 x6 | x6 | x6 | x6 | x6 | x6 | z3 z E2 | x6 | x6 | x6 | z3 z E2 | x6 | z3 z E2 | x6 | z3 z E2 | %15
 x6 | x6 |] %17
V:3
 [A,,A,] [A,,A,]2 [A,,A,] [A,,A,]2 | [A,,A,] [E,C]2 [E,B,] [E,B,]2 | [E,C] [E,B,]2 [E,G,] [E,G,]2 | %3
 [E,G,] [A,,A,]2 [A,,A,] [A,,A,]2 | [A,,A,] [A,,A,]2 [A,,A,] [A,,A,]2 | %5
 [C,A,] [D,A,]2 [D,A,] [D,A,]2 | [D,A,] [E,A,]2 [E,C]CB, | [E,C] [E,A,]2 [E,G,] [A,,A,]2- | %8
 [A,,A,] A,2- A,/ z/ A,2 | A, [A,,A,]2- [A,,A,] [A,,A,]2- | [A,,A,] [E,G,]2 [E,G,]G,A, | %11
 [E,B,] A,2 A, A,2- | A, [A,C]2- [A,C][A,C]A, | [C,A,] [D,A,]2- [D,A,] [D,A,]2- | %14
 [D,A,] [E,A,]2 [E,C]CB, | [E,C] [E,A,]2 [E,G,] [A,,A,]2- | [A,,A,]6 |] %17
V:4
 x6 | x6 | x6 | x6 | x6 | x6 | z3 z E,2 | x6 | x6 | x6 | z3 z E,2 | x6 | x6 | x6 | z3 z E,2 | x6 | %16
 x6 |] %17

